X:0069
T:The Cream Pot.
M:6/8
L:1/8
Q:3/8=120
I: :: :|
% C D E ^F G A B c ^c d e ^f g a
Z:Jack Campin * www.campin.me.uk * 2009
K:G
G2B B2c|dBd efg |G2B    B2c |dBG AFD |
E2C C2G|F2D D2c |B/c/dB cAF |G3  G3 :|
d2f f2g|f2d ecA |d2B    A2g |f2d e^cA|
a2f g2e|f2d e^cA|Bcd    ed^c|d3  D2B |
c2c cac|B2B BgB |A2A    ABc |dBG AFD |
E2C C2G|F2D D2c |B/c/dB cAF |G3  G3 :|

